images/3235460.svg

<?xml version="1.0" encoding="UTF-8"?>
<svg xmlns="http://www.w3.org/2000/svg" xmlns:xlink="http://www.w3.org/1999/xlink" width="300pt" height="300pt" viewBox="0 0 300 300" version="1.1">
<defs>
<g>
<symbol overflow="visible" id="glyph0-0">
<path style="stroke:none;" d="M 0.453125 1.59375 L 0.453125 -6.34375 L 4.953125 -6.34375 L 4.953125 1.59375 Z M 0.953125 1.09375 L 4.453125 1.09375 L 4.453125 -5.84375 L 0.953125 -5.84375 Z M 0.953125 1.09375 "/>
</symbol>
<symbol overflow="visible" id="glyph0-1">
<path style="stroke:none;" d="M 0.890625 -6.5625 L 2.078125 -6.5625 L 4.984375 -1.078125 L 4.984375 -6.5625 L 5.84375 -6.5625 L 5.84375 0 L 4.65625 0 L 1.75 -5.484375 L 1.75 0 L 0.890625 0 Z M 0.890625 -6.5625 "/>
</symbol>
<symbol overflow="visible" id="glyph0-2">
<path style="stroke:none;" d="M 3.546875 -5.953125 C 2.898438 -5.953125 2.382812 -5.710938 2 -5.234375 C 1.625 -4.753906 1.4375 -4.101562 1.4375 -3.28125 C 1.4375 -2.445312 1.625 -1.789062 2 -1.3125 C 2.382812 -0.832031 2.898438 -0.59375 3.546875 -0.59375 C 4.191406 -0.59375 4.703125 -0.832031 5.078125 -1.3125 C 5.453125 -1.789062 5.640625 -2.445312 5.640625 -3.28125 C 5.640625 -4.101562 5.453125 -4.753906 5.078125 -5.234375 C 4.703125 -5.710938 4.191406 -5.953125 3.546875 -5.953125 Z M 3.546875 -6.6875 C 4.460938 -6.6875 5.195312 -6.375 5.75 -5.75 C 6.300781 -5.132812 6.578125 -4.3125 6.578125 -3.28125 C 6.578125 -2.238281 6.300781 -1.410156 5.75 -0.796875 C 5.195312 -0.179688 4.460938 0.125 3.546875 0.125 C 2.617188 0.125 1.878906 -0.179688 1.328125 -0.796875 C 0.773438 -1.410156 0.5 -2.238281 0.5 -3.28125 C 0.5 -4.3125 0.773438 -5.132812 1.328125 -5.75 C 1.878906 -6.375 2.617188 -6.6875 3.546875 -6.6875 Z M 3.546875 -6.6875 "/>
</symbol>
</g>
</defs>
<g id="surface52545">
<rect x="0" y="0" width="300" height="300" style="fill:rgb(100%,100%,100%);fill-opacity:1;stroke:none;"/>
<path style="fill:none;stroke-width:1.2;stroke-linecap:butt;stroke-linejoin:miter;stroke:rgb(0%,0%,0%);stroke-opacity:1;stroke-miterlimit:10;" d="M 114.378906 124.390625 L 115.140625 136.480469 "/>
<path style="fill:none;stroke-width:1.2;stroke-linecap:butt;stroke-linejoin:miter;stroke:rgb(0%,0%,100%);stroke-opacity:1;stroke-miterlimit:10;" d="M 115.140625 136.480469 L 115.902344 148.570312 "/>
<path style="fill:none;stroke-width:1.2;stroke-linecap:butt;stroke-linejoin:miter;stroke:rgb(0%,0%,100%);stroke-opacity:1;stroke-miterlimit:10;" d="M 115.902344 148.570312 L 105.8125 155.273438 "/>
<path style="fill:none;stroke-width:1.2;stroke-linecap:butt;stroke-linejoin:miter;stroke:rgb(0%,0%,0%);stroke-opacity:1;stroke-miterlimit:10;" d="M 105.8125 155.273438 L 95.726562 161.976562 "/>
<path style="fill:none;stroke-width:1.2;stroke-linecap:butt;stroke-linejoin:miter;stroke:rgb(0%,0%,100%);stroke-opacity:1;stroke-miterlimit:10;" d="M 115.902344 148.570312 L 126.75 153.953125 "/>
<path style="fill:none;stroke-width:1.2;stroke-linecap:butt;stroke-linejoin:miter;stroke:rgb(0%,0%,0%);stroke-opacity:1;stroke-miterlimit:10;" d="M 126.75 153.953125 L 137.601562 159.339844 "/>
<path style=" stroke:none;fill-rule:nonzero;fill:rgb(100%,100%,100%);fill-opacity:1;" d="M 112.902344 143.070312 L 119.902344 143.070312 L 119.902344 154.070312 L 112.902344 154.070312 Z M 112.902344 143.070312 "/>
<g style="fill:rgb(0%,0%,100%);fill-opacity:1;">
  <use xlink:href="#glyph0-1" x="112.902344" y="151.733398"/>
</g>
<path style="fill:none;stroke-width:1.2;stroke-linecap:butt;stroke-linejoin:miter;stroke:rgb(0%,0%,0%);stroke-opacity:1;stroke-miterlimit:10;" d="M 95.726562 161.976562 L 74.027344 151.203125 "/>
<path style="fill:none;stroke-width:1.2;stroke-linecap:butt;stroke-linejoin:miter;stroke:rgb(0%,0%,0%);stroke-opacity:1;stroke-miterlimit:10;" d="M 74.027344 151.203125 L 52.558594 162.429688 "/>
<path style="fill:none;stroke-width:1.2;stroke-linecap:butt;stroke-linejoin:miter;stroke:rgb(0%,0%,0%);stroke-opacity:1;stroke-miterlimit:10;" d="M 69.238281 147.277344 L 52.0625 156.253906 "/>
<path style="fill:none;stroke-width:1.2;stroke-linecap:butt;stroke-linejoin:miter;stroke:rgb(100%,0%,0%);stroke-opacity:1;stroke-miterlimit:10;" d="M 69.984375 127.320312 L 72.007812 139.261719 "/>
<path style="fill:none;stroke-width:1.2;stroke-linecap:butt;stroke-linejoin:miter;stroke:rgb(0%,0%,0%);stroke-opacity:1;stroke-miterlimit:10;" d="M 72.007812 139.261719 L 74.027344 151.203125 "/>
<path style="fill:none;stroke-width:1.2;stroke-linecap:butt;stroke-linejoin:miter;stroke:rgb(0%,0%,0%);stroke-opacity:1;stroke-miterlimit:10;" d="M 52.558594 162.429688 L 35.25 145.480469 "/>
<path style="fill:none;stroke-width:1.2;stroke-linecap:butt;stroke-linejoin:miter;stroke:rgb(0%,0%,0%);stroke-opacity:1;stroke-miterlimit:10;" d="M 35.25 145.480469 L 46.019531 123.78125 "/>
<path style="fill:none;stroke-width:1.2;stroke-linecap:butt;stroke-linejoin:miter;stroke:rgb(0%,0%,0%);stroke-opacity:1;stroke-miterlimit:10;" d="M 41.433594 145.84375 L 50.050781 128.484375 "/>
<path style="fill:none;stroke-width:1.2;stroke-linecap:butt;stroke-linejoin:miter;stroke:rgb(0%,0%,0%);stroke-opacity:1;stroke-miterlimit:10;" d="M 46.019531 123.78125 L 58.003906 125.550781 "/>
<path style="fill:none;stroke-width:1.2;stroke-linecap:butt;stroke-linejoin:miter;stroke:rgb(100%,0%,0%);stroke-opacity:1;stroke-miterlimit:10;" d="M 58.003906 125.550781 L 69.984375 127.320312 "/>
<path style=" stroke:none;fill-rule:nonzero;fill:rgb(100%,100%,100%);fill-opacity:1;" d="M 65.984375 121.820312 L 73.984375 121.820312 L 73.984375 132.820312 L 65.984375 132.820312 Z M 65.984375 121.820312 "/>
<g style="fill:rgb(100%,0%,0%);fill-opacity:1;">
  <use xlink:href="#glyph0-2" x="65.984375" y="130.483398"/>
</g>
<path style="fill:none;stroke-width:1.2;stroke-linecap:butt;stroke-linejoin:miter;stroke:rgb(0%,0%,0%);stroke-opacity:1;stroke-miterlimit:10;" d="M 137.601562 159.339844 L 138.363281 171.425781 "/>
<path style="fill:none;stroke-width:1.2;stroke-linecap:butt;stroke-linejoin:miter;stroke:rgb(0%,0%,100%);stroke-opacity:1;stroke-miterlimit:10;" d="M 138.363281 171.425781 L 139.121094 183.515625 "/>
<path style="fill:none;stroke-width:1.2;stroke-linecap:butt;stroke-linejoin:miter;stroke:rgb(0%,0%,0%);stroke-opacity:1;stroke-miterlimit:10;" d="M 143.441406 161.398438 L 144.050781 171.070312 "/>
<path style="fill:none;stroke-width:1.2;stroke-linecap:butt;stroke-linejoin:miter;stroke:rgb(0%,0%,100%);stroke-opacity:1;stroke-miterlimit:10;" d="M 144.050781 171.070312 L 144.660156 180.742188 "/>
<path style="fill:none;stroke-width:1.2;stroke-linecap:butt;stroke-linejoin:miter;stroke:rgb(0%,0%,0%);stroke-opacity:1;stroke-miterlimit:10;" d="M 157.777344 145.933594 L 137.601562 159.339844 "/>
<path style="fill:none;stroke-width:1.2;stroke-linecap:butt;stroke-linejoin:miter;stroke:rgb(0%,0%,100%);stroke-opacity:1;stroke-miterlimit:10;" d="M 139.121094 183.515625 L 149.972656 188.902344 "/>
<path style="fill:none;stroke-width:1.2;stroke-linecap:butt;stroke-linejoin:miter;stroke:rgb(0%,0%,0%);stroke-opacity:1;stroke-miterlimit:10;" d="M 149.972656 188.902344 L 160.820312 194.285156 "/>
<path style=" stroke:none;fill-rule:nonzero;fill:rgb(100%,100%,100%);fill-opacity:1;" d="M 136.121094 178.015625 L 143.121094 178.015625 L 143.121094 189.015625 L 136.121094 189.015625 Z M 136.121094 178.015625 "/>
<g style="fill:rgb(0%,0%,100%);fill-opacity:1;">
  <use xlink:href="#glyph0-1" x="136.121094" y="186.678711"/>
</g>
<path style="fill:none;stroke-width:1.2;stroke-linecap:butt;stroke-linejoin:miter;stroke:rgb(0%,0%,0%);stroke-opacity:1;stroke-miterlimit:10;" d="M 160.820312 194.285156 L 170.910156 187.582031 "/>
<path style="fill:none;stroke-width:1.2;stroke-linecap:butt;stroke-linejoin:miter;stroke:rgb(0%,0%,100%);stroke-opacity:1;stroke-miterlimit:10;" d="M 170.910156 187.582031 L 181 180.878906 "/>
<path style="fill:none;stroke-width:1.2;stroke-linecap:butt;stroke-linejoin:miter;stroke:rgb(0%,0%,0%);stroke-opacity:1;stroke-miterlimit:10;" d="M 159.683594 188.199219 L 167.753906 182.835938 "/>
<path style="fill:none;stroke-width:1.2;stroke-linecap:butt;stroke-linejoin:miter;stroke:rgb(0%,0%,100%);stroke-opacity:1;stroke-miterlimit:10;" d="M 167.753906 182.835938 L 175.828125 177.472656 "/>
<path style="fill:none;stroke-width:1.2;stroke-linecap:butt;stroke-linejoin:miter;stroke:rgb(0%,0%,100%);stroke-opacity:1;stroke-miterlimit:10;" d="M 181 180.878906 L 180.238281 168.792969 "/>
<path style="fill:none;stroke-width:1.2;stroke-linecap:butt;stroke-linejoin:miter;stroke:rgb(0%,0%,0%);stroke-opacity:1;stroke-miterlimit:10;" d="M 180.238281 168.792969 L 179.476562 156.703125 "/>
<path style=" stroke:none;fill-rule:nonzero;fill:rgb(100%,100%,100%);fill-opacity:1;" d="M 178 175.378906 L 185 175.378906 L 185 186.378906 L 178 186.378906 Z M 178 175.378906 "/>
<g style="fill:rgb(0%,0%,100%);fill-opacity:1;">
  <use xlink:href="#glyph0-1" x="178" y="184.041992"/>
</g>
<path style="fill:none;stroke-width:1.2;stroke-linecap:butt;stroke-linejoin:miter;stroke:rgb(0%,0%,0%);stroke-opacity:1;stroke-miterlimit:10;" d="M 179.476562 156.703125 L 157.777344 145.933594 "/>
<path style="fill:none;stroke-width:1.2;stroke-linecap:butt;stroke-linejoin:miter;stroke:rgb(0%,0%,0%);stroke-opacity:1;stroke-miterlimit:10;" d="M 174.773438 160.730469 L 157.414062 152.117188 "/>
<path style="fill:none;stroke-width:1.2;stroke-linecap:butt;stroke-linejoin:miter;stroke:rgb(0%,0%,0%);stroke-opacity:1;stroke-miterlimit:10;" d="M 179.476562 156.703125 L 199.652344 143.296875 "/>
<path style="fill:none;stroke-width:1.2;stroke-linecap:butt;stroke-linejoin:miter;stroke:rgb(0%,0%,0%);stroke-opacity:1;stroke-miterlimit:10;" d="M 199.652344 143.296875 L 221.351562 154.066406 "/>
<path style="fill:none;stroke-width:1.2;stroke-linecap:butt;stroke-linejoin:miter;stroke:rgb(0%,0%,0%);stroke-opacity:1;stroke-miterlimit:10;" d="M 204.359375 139.269531 L 221.714844 147.882812 "/>
<path style="fill:none;stroke-width:1.2;stroke-linecap:butt;stroke-linejoin:miter;stroke:rgb(0%,0%,0%);stroke-opacity:1;stroke-miterlimit:10;" d="M 198.132812 119.121094 L 199.652344 143.296875 "/>
<path style="fill:none;stroke-width:1.2;stroke-linecap:butt;stroke-linejoin:miter;stroke:rgb(0%,0%,0%);stroke-opacity:1;stroke-miterlimit:10;" d="M 221.351562 154.066406 L 241.53125 140.660156 "/>
<path style="fill:none;stroke-width:1.2;stroke-linecap:butt;stroke-linejoin:miter;stroke:rgb(0%,0%,0%);stroke-opacity:1;stroke-miterlimit:10;" d="M 241.53125 140.660156 L 240.007812 116.484375 "/>
<path style="fill:none;stroke-width:1.2;stroke-linecap:butt;stroke-linejoin:miter;stroke:rgb(0%,0%,0%);stroke-opacity:1;stroke-miterlimit:10;" d="M 235.6875 138.601562 L 234.472656 119.257812 "/>
<path style="fill:none;stroke-width:1.2;stroke-linecap:butt;stroke-linejoin:miter;stroke:rgb(0%,0%,0%);stroke-opacity:1;stroke-miterlimit:10;" d="M 241.53125 140.660156 L 252.378906 146.046875 "/>
<path style="fill:none;stroke-width:1.2;stroke-linecap:butt;stroke-linejoin:miter;stroke:rgb(100%,0%,0%);stroke-opacity:1;stroke-miterlimit:10;" d="M 252.378906 146.046875 L 263.226562 151.429688 "/>
<path style="fill:none;stroke-width:1.2;stroke-linecap:butt;stroke-linejoin:miter;stroke:rgb(0%,0%,0%);stroke-opacity:1;stroke-miterlimit:10;" d="M 240.007812 116.484375 L 218.308594 105.714844 "/>
<path style="fill:none;stroke-width:1.2;stroke-linecap:butt;stroke-linejoin:miter;stroke:rgb(0%,0%,0%);stroke-opacity:1;stroke-miterlimit:10;" d="M 218.308594 105.714844 L 198.132812 119.121094 "/>
<path style="fill:none;stroke-width:1.2;stroke-linecap:butt;stroke-linejoin:miter;stroke:rgb(0%,0%,0%);stroke-opacity:1;stroke-miterlimit:10;" d="M 219.445312 111.800781 L 203.304688 122.527344 "/>
<path style="fill:none;stroke-width:1.2;stroke-linecap:butt;stroke-linejoin:miter;stroke:rgb(100%,0%,0%);stroke-opacity:1;stroke-miterlimit:10;" d="M 263.226562 151.429688 L 263.988281 163.519531 "/>
<path style="fill:none;stroke-width:1.2;stroke-linecap:butt;stroke-linejoin:miter;stroke:rgb(0%,0%,0%);stroke-opacity:1;stroke-miterlimit:10;" d="M 263.988281 163.519531 L 264.75 175.609375 "/>
<path style=" stroke:none;fill-rule:nonzero;fill:rgb(100%,100%,100%);fill-opacity:1;" d="M 259.226562 145.929688 L 267.226562 145.929688 L 267.226562 156.929688 L 259.226562 156.929688 Z M 259.226562 145.929688 "/>
<g style="fill:rgb(100%,0%,0%);fill-opacity:1;">
  <use xlink:href="#glyph0-2" x="259.226562" y="154.592773"/>
</g>
</g>
</svg>

<svg xmlns="http://www.w3.org/2000/svg" xmlns:xlink="http://www.w3.org/1999/xlink" width="300pt" height="300pt" viewBox="0 0 300 300"><defs><symbol overflow="visible"><path d="M.453 1.594v-7.938h4.5v7.938zm.5-.5h3.5v-6.938h-3.5zm0 0"/></symbol><symbol overflow="visible" id="a"><path d="M.89-6.563H2.08l2.906 5.485v-5.484h.86V0H4.656L1.75-5.484V0H.89zm0 0"/></symbol><symbol overflow="visible" id="b"><path d="M3.547-5.953c-.65 0-1.164.242-1.547.72-.375.48-.563 1.13-.563 1.952 0 .835.188 1.49.563 1.967.383.48.898.72 1.547.72.644 0 1.156-.24 1.53-.72.376-.476.564-1.132.564-1.968 0-.822-.187-1.474-.562-1.954-.375-.477-.887-.72-1.53-.72zm0-.734c.914 0 1.648.312 2.203.937.55.617.828 1.438.828 2.47 0 1.042-.277 1.87-.828 2.483-.555.617-1.29.922-2.203.922-.93 0-1.668-.305-2.22-.922C.774-1.41.5-2.237.5-3.28c0-1.033.273-1.853.828-2.47.55-.625 1.29-.938 2.22-.938zm0 0"/></symbol></defs><g><path fill="#fff" d="M0 0h300v300H0z"/><path d="M114.38 124.39l.76 12.09" stroke-width="1.2" stroke="#000" stroke-miterlimit="10" fill="none"/><path d="M115.14 136.48l.762 12.09M115.902 148.57l-10.09 6.703" stroke-width="1.2" stroke="#00f" stroke-miterlimit="10" fill="none"/><path d="M105.813 155.273l-10.086 6.704" stroke-width="1.2" stroke="#000" stroke-miterlimit="10" fill="none"/><path d="M115.902 148.57l10.848 5.383" stroke-width="1.2" stroke="#00f" stroke-miterlimit="10" fill="none"/><path d="M126.75 153.953l10.852 5.387" stroke-width="1.2" stroke="#000" stroke-miterlimit="10" fill="none"/><path d="M112.902 143.07h7v11h-7zm0 0" fill="#fff"/><use xlink:href="#a" x="112.902" y="151.733" fill="#00f"/><path d="M95.727 161.977l-21.7-10.774M74.027 151.203L52.56 162.43M69.238 147.277l-17.175 8.977" stroke-width="1.2" stroke="#000" stroke-miterlimit="10" fill="none"/><path d="M69.984 127.32l2.024 11.942" stroke-width="1.2" stroke="#f00" stroke-miterlimit="10" fill="none"/><path d="M72.008 139.262l2.02 11.94M52.56 162.43l-17.31-16.95M35.25 145.48l10.77-21.7M41.434 145.844l8.617-17.36M46.02 123.78l11.984 1.77" stroke-width="1.2" stroke="#000" stroke-miterlimit="10" fill="none"/><path d="M58.004 125.55l11.98 1.77" stroke-width="1.2" stroke="#f00" stroke-miterlimit="10" fill="none"/><path d="M65.984 121.82h8v11h-8zm0 0" fill="#fff"/><use xlink:href="#b" x="65.984" y="130.483" fill="#f00"/><path d="M137.602 159.34l.76 12.086" stroke-width="1.2" stroke="#000" stroke-miterlimit="10" fill="none"/><path d="M138.363 171.426l.758 12.09" stroke-width="1.2" stroke="#00f" stroke-miterlimit="10" fill="none"/><path d="M143.44 161.398l.61 9.672" stroke-width="1.2" stroke="#000" stroke-miterlimit="10" fill="none"/><path d="M144.05 171.07l.61 9.672" stroke-width="1.2" stroke="#00f" stroke-miterlimit="10" fill="none"/><path d="M157.777 145.934l-20.175 13.406" stroke-width="1.2" stroke="#000" stroke-miterlimit="10" fill="none"/><path d="M139.12 183.516l10.853 5.386" stroke-width="1.2" stroke="#00f" stroke-miterlimit="10" fill="none"/><path d="M149.973 188.902l10.847 5.383" stroke-width="1.2" stroke="#000" stroke-miterlimit="10" fill="none"/><path d="M136.12 178.016h7v11h-7zm0 0" fill="#fff"/><use xlink:href="#a" x="136.121" y="186.679" fill="#00f"/><path d="M160.82 194.285l10.09-6.703" stroke-width="1.2" stroke="#000" stroke-miterlimit="10" fill="none"/><path d="M170.91 187.582L181 180.88" stroke-width="1.2" stroke="#00f" stroke-miterlimit="10" fill="none"/><path d="M159.684 188.2l8.07-5.364" stroke-width="1.2" stroke="#000" stroke-miterlimit="10" fill="none"/><path d="M167.754 182.836l8.074-5.363M181 180.88l-.762-12.087" stroke-width="1.2" stroke="#00f" stroke-miterlimit="10" fill="none"/><path d="M180.238 168.793l-.76-12.09" stroke-width="1.2" stroke="#000" stroke-miterlimit="10" fill="none"/><path d="M178 175.38h7v11h-7zm0 0" fill="#fff"/><use xlink:href="#a" x="178" y="184.042" fill="#00f"/><path d="M179.477 156.703l-21.7-10.77M174.773 160.73l-17.36-8.613M179.477 156.703l20.175-13.406M199.652 143.297l21.7 10.77M204.36 139.27l17.355 8.613M198.133 119.12l1.52 24.177M221.352 154.066l20.18-13.406M241.53 140.66l-1.522-24.176M235.688 138.602l-1.215-19.344M241.53 140.66l10.85 5.387" stroke-width="1.2" stroke="#000" stroke-miterlimit="10" fill="none"/><path d="M252.38 146.047l10.847 5.383" stroke-width="1.2" stroke="#f00" stroke-miterlimit="10" fill="none"/><path d="M240.008 116.484l-21.7-10.77M218.31 105.715l-20.177 13.406M219.445 111.8l-16.14 10.727" stroke-width="1.2" stroke="#000" stroke-miterlimit="10" fill="none"/><path d="M263.227 151.43l.76 12.09" stroke-width="1.2" stroke="#f00" stroke-miterlimit="10" fill="none"/><path d="M263.988 163.52l.762 12.09" stroke-width="1.2" stroke="#000" stroke-miterlimit="10" fill="none"/><path d="M259.227 145.93h8v11h-8zm0 0" fill="#fff"/><use xlink:href="#b" x="259.227" y="154.593" fill="#f00"/></g></svg>
